X: 1
T: SILVER CLUSTER -- REEL
B: Ryan's Mammoth Collection of Fiddle Tunes
R: reel
M: 2/4
L: 1/16
Z: Contributed 20010522204905 by John Chambers jc:trillian.mit.edu
K: Bb
((3uFGA) \
| B3d cBcd | Bdfb (~g2f2) | (ba)gf gfdB | cdcB GBF2 \
| (B3.d) cBcd | Bdfb (~g2f2) | (ba)gf gfdB | cBGA B2 :|
|: "_f"uf2 \
| ("_fz"g3.a) b2ag | (fb)df BdF2 | {d}c=Bcd e2A2 | {c}BABc d2f2 \
| ("_fz"g3.a) b2ag | (fb)df BdF2 | {d}c=Bcd e2A2 | B2{c}BA B2 :|
